;FLAVOR:Marlin
;TIME:3169
;Filament used: 2.75382m
;Layer height: 0.2
;MINX:78.427
;MINY:88
;MINZ:0.2
;MAXX:141.573
;MAXY:120.8
;MAXZ:49
;TARGET_MACHINE.NAME:Creality Ender-3 V3 SE
;Generated with Cura_SteamEngine 5.10.1
M220 S100 ;Reset Feedrate
M221 S100 ;Reset Flowrate

G28 ;Home

M420 S1; Use saved mesh leveling data

G92 E0 ;Reset Extruder
G1 Z2.0 F3000 ;Move Z Axis up
G1 X-3 Y20 Z0.28 F5000.0 ;Move to start position
M190 S60 ; Set bed temperature and wait
M109 S210.0 ; Set hotend temperature and wait
G1 X-3 Y100.0 Z0.28 F1500.0 E15 ;Draw the first line
G1 X-2 Y100.0 Z0.28 F5000.0 ;Move to side a little
G1 X-2 Y20 Z0.28 F1500.0 E30 ;Draw the second line
G92 E0 ;Reset Extruder
G1 E-1.0000 F1800 ;Retract a bit
G1 Z2.0 F3000 ;Move Z Axis up
G1 E0.0000 F1800 

M82 ;absolute extrusion mode
G92 E0
G92 E0
G1 F2400 E-0.8
;LAYER_COUNT:245
;LAYER:0
M107
G0 F9000 X81.897 Y91.001 Z0.2
;TYPE:SKIRT
G1 F2400 E0
G1 F1800 X82.635 Y90.365 E0.0324
G1 X83.425 Y89.798 E0.06475
G1 X84.201 Y89.336 E0.09478
G1 X85.143 Y88.883 E0.12955
G1 X86.056 Y88.543 E0.16195
G1 X86.96 Y88.293 E0.19315
G1 X87.937 Y88.114 E0.22618
G1 X88.476 Y88.053 E0.24423
G1 X89.113 Y88.014 E0.26545
G1 X89.719 Y88 E0.28561
G1 X129.877 Y88 E1.62127
G1 X130.757 Y88.013 E1.65055
G1 X131.729 Y88.072 E1.68293
G1 X132.692 Y88.218 E1.71533
G1 X133.639 Y88.449 E1.74775
G1 X134.527 Y88.749 E1.77893
G1 X135.419 Y89.139 E1.81131
G1 X136.302 Y89.626 E1.84485
G1 X137.053 Y90.128 E1.87489
G1 X137.868 Y90.786 E1.90973
G1 X138.566 Y91.464 E1.94209
G1 X139.202 Y92.201 E1.97447
G1 X139.772 Y92.991 E2.00687
G1 X140.234 Y93.767 E2.03691
G1 X140.688 Y94.709 E2.07169
G1 X141.017 Y95.587 E2.10288
G1 X141.286 Y96.559 E2.13642
G1 X141.463 Y97.525 E2.16908
G1 X141.558 Y98.652 E2.2067
G1 X141.573 Y99.319 E2.22889
G1 X141.564 Y101.15 E2.28979
G1 X141.523 Y101.944 E2.31624
G1 X141.396 Y102.91 E2.34864
G1 X141.184 Y103.859 E2.38098
G1 X140.914 Y104.721 E2.41103
G1 X140.512 Y105.687 E2.44583
G1 X140.058 Y106.548 E2.4782
G1 X139.53 Y107.365 E2.51056
G1 X138.931 Y108.133 E2.54295
G1 X138.267 Y108.846 E2.57536
G1 X137.542 Y109.496 E2.60774
G1 X136.763 Y110.08 E2.64012
G1 X135.935 Y110.593 E2.67252
G1 X135.526 Y110.8 E2.68777
G1 X135.469 Y110.839 E2.69006
G1 X135.077 Y111.025 E2.70449
G1 X134.52 Y111.258 E2.72458
G1 X133.936 Y111.484 E2.7454
G1 X131.542 Y112.449 E2.83125
G1 X129.305 Y113.423 E2.9124
G1 X128.197 Y113.922 E2.95282
G1 X127.358 Y114.256 E2.98286
G1 X126.722 Y114.459 E3.00506
G1 X126.379 Y114.555 E3.01691
G1 X125.431 Y114.778 E3.0493
G1 X124.576 Y114.904 E3.07804
G1 X123.914 Y114.963 E3.10015
G1 X123.371 Y114.985 E3.11822
G1 X122.497 Y114.999 E3.1473
G1 X97.547 Y115 E3.97714
G1 X96.712 Y114.988 E4.00491
G1 X95.801 Y114.94 E4.03525
G1 X95.197 Y114.878 E4.05545
G1 X94.283 Y114.721 E4.08629
G1 X93.493 Y114.526 E4.11336
G1 X92.521 Y114.211 E4.14734
G1 X91.921 Y113.964 E4.16892
G1 X90.382 Y113.28 E4.22494
G1 X87.943 Y112.234 E4.31321
G1 X86.733 Y111.761 E4.35642
G1 X85.318 Y111.193 E4.40713
G1 X84.516 Y110.831 E4.43639
G1 X83.636 Y110.339 E4.46993
G1 X82.832 Y109.789 E4.50233
G1 X82.08 Y109.17 E4.53472
G1 X81.386 Y108.487 E4.56711
G1 X80.777 Y107.774 E4.5983
G1 X80.191 Y106.952 E4.63187
G1 X79.734 Y106.174 E4.66188
G1 X79.289 Y105.234 E4.69647
G1 X78.989 Y104.434 E4.72489
G1 X78.726 Y103.497 E4.75726
G1 X78.544 Y102.528 E4.79005
G1 X78.442 Y101.339 E4.82974
G1 X78.427 Y100.692 E4.85127
G1 X78.427 Y99.5 E4.89092
G1 X78.439 Y98.807 E4.91397
G1 X78.499 Y97.834 E4.94639
G1 X78.646 Y96.871 E4.97879
G1 X78.878 Y95.926 E5.01116
G1 X79.192 Y95.005 E5.04352
G1 X79.585 Y94.114 E5.07591
G1 X80.02 Y93.322 E5.10596
G1 X80.603 Y92.454 E5.14074
G1 X81.194 Y91.726 E5.17193
G1 X81.897 Y91.001 E5.20552
G0 F9000 X82.158 Y91.304
G1 F1800 X82.869 Y90.69 E5.23676
G1 X83.63 Y90.142 E5.26795
G1 X84.406 Y89.68 E5.29799
G1 X85.283 Y89.258 E5.33036
G1 X86.163 Y88.929 E5.36161
G1 X87.067 Y88.679 E5.3928
G1 X87.982 Y88.511 E5.42375
G1 X88.5 Y88.452 E5.44109
G1 X89.122 Y88.414 E5.46181
G1 X89.728 Y88.4 E5.48197
G1 X129.871 Y88.4 E6.81713
G1 X130.733 Y88.412 E6.84581
G1 X131.67 Y88.468 E6.87703
G1 X132.598 Y88.607 E6.90824
G1 X133.511 Y88.828 E6.93948
G1 X134.367 Y89.116 E6.96952
G1 X135.259 Y89.506 E7.0019
G1 X136.08 Y89.959 E7.03309
G1 X136.831 Y90.461 E7.06313
G1 X137.59 Y91.073 E7.09556
G1 X138.264 Y91.726 E7.12677
G1 X138.878 Y92.435 E7.15797
G1 X139.428 Y93.196 E7.1892
G1 X139.89 Y93.972 E7.21924
G1 X140.313 Y94.849 E7.25162
G1 X140.642 Y95.727 E7.28281
G1 X140.893 Y96.632 E7.31404
G1 X141.064 Y97.559 E7.3454
G1 X141.159 Y98.686 E7.38301
G1 X141.173 Y99.317 E7.404
G1 X141.164 Y101.13 E7.46431
G1 X141.126 Y101.892 E7.48968
G1 X141.005 Y102.823 E7.52091
G1 X140.802 Y103.739 E7.55211
G1 X140.532 Y104.601 E7.58216
G1 X140.158 Y105.501 E7.61457
G1 X139.722 Y106.331 E7.64576
G1 X139.214 Y107.12 E7.67697
G1 X138.638 Y107.861 E7.70818
G1 X137.999 Y108.549 E7.73941
G1 X137.302 Y109.176 E7.7706
G1 X136.552 Y109.74 E7.80181
G1 X135.754 Y110.236 E7.83306
G1 X135.321 Y110.455 E7.8492
G1 X135.297 Y110.478 E7.8503
G1 X134.923 Y110.656 E7.86408
G1 X134.376 Y110.885 E7.8838
G1 X133.786 Y111.113 E7.90484
G1 X131.382 Y112.082 E7.99105
G1 X129.145 Y113.056 E8.0722
G1 X128.049 Y113.55 E8.11218
G1 X127.21 Y113.884 E8.14222
G1 X126.613 Y114.074 E8.16305
G1 X126.287 Y114.166 E8.17432
G1 X125.373 Y114.382 E8.20556
G1 X124.518 Y114.508 E8.2343
G1 X123.897 Y114.563 E8.25504
G1 X123.365 Y114.585 E8.27275
G1 X122.497 Y114.599 E8.30162
G1 X97.552 Y114.6 E9.1313
G1 X96.733 Y114.589 E9.15854
G1 X95.842 Y114.542 E9.18821
G1 X95.238 Y114.48 E9.20841
G1 X94.379 Y114.333 E9.23739
G1 X93.589 Y114.138 E9.26446
G1 X92.673 Y113.841 E9.29649
G1 X92.084 Y113.599 E9.31767
G1 X90.54 Y112.912 E9.37387
G1 X88.101 Y111.867 E9.46213
G1 X86.882 Y111.39 E9.50566
G1 X85.483 Y110.828 E9.55581
G1 X84.681 Y110.466 E9.58508
G1 X83.861 Y110.008 E9.61631
G1 X83.086 Y109.48 E9.6475
G1 X82.36 Y108.884 E9.67875
G1 X81.69 Y108.227 E9.70996
G1 X81.102 Y107.541 E9.74001
G1 X80.536 Y106.749 E9.77239
G1 X80.079 Y105.971 E9.8024
G1 X79.663 Y105.093 E9.83471
G1 X79.374 Y104.325 E9.862
G1 X79.119 Y103.422 E9.89321
G1 X78.943 Y102.494 E9.92463
G1 X78.841 Y101.305 E9.96432
G1 X78.827 Y100.683 E9.98501
G1 X78.827 Y99.507 E10.02412
G1 X78.838 Y98.831 E10.04661
G1 X78.895 Y97.894 E10.07783
G1 X79.035 Y96.966 E10.10905
G1 X79.257 Y96.054 E10.14027
G1 X79.558 Y95.166 E10.17145
G1 X79.936 Y94.307 E10.20267
G1 X80.371 Y93.515 E10.23272
G1 X80.914 Y92.706 E10.26513
G1 X81.505 Y91.978 E10.29632
G1 X82.158 Y91.304 E10.32753
G0 F9000 X82.42 Y91.606
G1 F1800 X83.103 Y91.014 E10.35759
G1 X83.835 Y90.486 E10.38761
G1 X84.611 Y90.024 E10.41765
G1 X85.424 Y89.632 E10.44767
G1 X86.27 Y89.314 E10.47773
G1 X87.14 Y89.072 E10.50776
G1 X88.028 Y88.908 E10.5378
G1 X88.524 Y88.851 E10.5544
G1 X89.131 Y88.814 E10.57463
G1 X89.737 Y88.8 E10.59479
G1 X129.866 Y88.8 E11.92949
G1 X130.71 Y88.811 E11.95756
G1 X131.612 Y88.864 E11.98761
G1 X132.505 Y88.996 E12.01764
G1 X133.383 Y89.207 E12.04767
G1 X134.239 Y89.495 E12.07771
G1 X135.066 Y89.857 E12.10774
G1 X135.858 Y90.292 E12.13779
G1 X136.609 Y90.794 E12.16783
G1 X137.312 Y91.361 E12.19787
G1 X137.962 Y91.988 E12.22791
G1 X138.554 Y92.67 E12.25795
G1 X139.084 Y93.401 E12.28798
G1 X139.546 Y94.177 E12.31802
G1 X139.939 Y94.99 E12.34805
G1 X140.257 Y95.835 E12.37808
G1 X140.5 Y96.705 E12.40812
G1 X140.665 Y97.593 E12.43816
G1 X140.76 Y98.72 E12.47578
G1 X140.773 Y99.315 E12.49558
G1 X140.764 Y101.111 E12.55531
G1 X140.729 Y101.841 E12.57962
G1 X140.614 Y102.737 E12.60967
G1 X140.42 Y103.619 E12.6397
G1 X140.15 Y104.481 E12.66975
G1 X139.804 Y105.315 E12.69978
G1 X139.385 Y106.115 E12.72981
G1 X138.898 Y106.875 E12.75984
G1 X138.345 Y107.589 E12.78987
G1 X137.731 Y108.252 E12.81993
G1 X137.061 Y108.857 E12.84995
G1 X136.34 Y109.401 E12.87999
G1 X135.574 Y109.879 E12.91003
G1 X135.121 Y110.108 E12.92691
G1 X135.125 Y110.117 E12.92724
G1 X134.768 Y110.287 E12.94039
G1 X134.232 Y110.512 E12.95972
G1 X133.636 Y110.742 E12.98097
G1 X131.222 Y111.715 E13.06754
G1 X128.985 Y112.689 E13.14869
G1 X127.901 Y113.178 E13.18824
G1 X127.062 Y113.512 E13.21827
G1 X126.503 Y113.689 E13.23778
G1 X126.194 Y113.777 E13.24846
G1 X125.315 Y113.986 E13.27851
G1 X124.46 Y114.112 E13.30726
G1 X123.88 Y114.163 E13.32662
G1 X123.358 Y114.185 E13.344
G1 X122.497 Y114.199 E13.37264
G1 X97.557 Y114.2 E14.20215
G1 X96.754 Y114.19 E14.22886
G1 X95.883 Y114.144 E14.25787
G1 X95.279 Y114.082 E14.27806
G1 X94.447 Y113.939 E14.30614
G1 X93.685 Y113.75 E14.33225
G1 X92.825 Y113.471 E14.36232
G1 X92.247 Y113.234 E14.3831
G1 X90.698 Y112.544 E14.4395
G1 X88.247 Y111.494 E14.52819
G1 X87.031 Y111.019 E14.57161
G1 X85.647 Y110.463 E14.62122
G1 X84.875 Y110.116 E14.64937
G1 X84.086 Y109.677 E14.6794
G1 X83.339 Y109.17 E14.70943
G1 X82.64 Y108.598 E14.73947
G1 X81.994 Y107.967 E14.7695
G1 X81.406 Y107.281 E14.79955
G1 X80.881 Y106.546 E14.82959
G1 X80.424 Y105.768 E14.85961
G1 X80.037 Y104.952 E14.88964
G1 X79.759 Y104.216 E14.91581
G1 X79.512 Y103.347 E14.94586
G1 X79.342 Y102.46 E14.9759
G1 X79.24 Y101.271 E15.01559
G1 X79.227 Y100.674 E15.03545
G1 X79.227 Y99.513 E15.07406
G1 X79.237 Y98.855 E15.09595
G1 X79.291 Y97.953 E15.12601
G1 X79.424 Y97.06 E15.15604
G1 X79.636 Y96.182 E15.18608
G1 X79.924 Y95.327 E15.21608
G1 X80.287 Y94.5 E15.24612
G1 X80.722 Y93.708 E15.27618
G1 X81.225 Y92.958 E15.30621
G1 X81.793 Y92.256 E15.33625
G1 X82.42 Y91.606 E15.36629
G1 F2400 E14.56629
;MESH:9vcase.STL
G0 F9000 X89.844 Y99.425
G0 X110 Y103.4
;TYPE:WALL-INNER
G1 F2400 E15.36629
G1 F1800 X123.241 Y103.4 E15.80668
G1 X123.458 Y103.341 E15.81416
G1 X123.721 Y103.19 E15.82425
G1 X123.841 Y103.069 E15.82992
G1 X123.989 Y102.81 E15.83984
G1 X124.048 Y102.593 E15.84732
G1 X124.048 Y101 E15.9003
G1 X124.094 Y100.768 E15.90817
G1 X124.288 Y100.519 E15.91867
G1 X124.562 Y100.4 E15.9286
G1 X128.89 Y100.4 E16.07255
G1 X128.889 Y99.6 E16.09916
G1 X91.108 Y99.6 E17.35576
G1 X91.108 Y100.4 E17.38237
G1 X95.348 Y100.4 E17.52339
G1 X95.709 Y100.519 E17.53604
G1 X95.902 Y100.769 E17.54654
G1 X95.948 Y101 E17.55437
G1 X95.948 Y102.593 E17.60736
G1 X96.007 Y102.81 E17.61484
G1 X96.156 Y103.067 E17.62472
G1 X96.403 Y103.279 E17.63554
G1 X96.755 Y103.4 E17.64792
G1 X110 Y103.4 E18.08845
G0 F9000 X110 Y103.8
;TYPE:WALL-OUTER
G1 F1800 X123.293 Y103.8 E18.53058
G1 X123.595 Y103.719 E18.54098
G1 X123.979 Y103.498 E18.55572
G1 X124.149 Y103.327 E18.56374
G1 X124.367 Y102.947 E18.57831
G1 X124.448 Y102.645 E18.58871
G1 X124.448 Y100.941 E18.64538
G1 X124.528 Y100.839 E18.64969
G1 X124.613 Y100.802 E18.65278
G1 X129.291 Y100.8 E18.80837
G1 X129.288 Y99.2 E18.86158
G1 X90.708 Y99.2 E20.14476
G1 X90.708 Y100.8 E20.19798
G1 X95.348 Y100.8 E20.3523
G1 X95.469 Y100.839 E20.35653
G1 X95.548 Y100.943 E20.36088
G1 X95.548 Y102.645 E20.41748
G1 X95.629 Y102.947 E20.42788
G1 X95.85 Y103.326 E20.44248
G1 X96.268 Y103.683 E20.46076
G1 X96.703 Y103.8 E20.47574
G1 X110 Y103.8 E20.918
G0 F9000 X110 Y103.49
G0 X96.776 Y103.239
G0 X96.485 Y103.139
G0 X96.28 Y102.962
G0 X96.109 Y102.571
G0 X95.788 Y100.562
G0 X91.28 Y100.228
G0 X91.508 Y100
;TYPE:SKIN
G1 F1481.5 X95.421 Y100.006 E21.07613
G1 F2400 E20.27613
G0 F9000 X95.421 Y99.7
G0 X128.488 Y99.7
G0 X128.488 Y100
G1 F2400 E21.07613
G1 F1493.8 X124.503 Y100.001 E21.23584
G0 F9000 X124.503 Y99.7
G0 X128.717 Y99.772
G0 X128.718 Y100.228
G0 X124.192 Y100.39
G0 X123.887 Y102.574
G0 X123.718 Y102.966
G0 X123.406 Y103.189
G0 X110 Y103.3
G0 X110 Y103.04
G1 F1800 X96.811 Y103.04 E21.67451
G1 X96.586 Y102.959 E21.68246
G1 X96.432 Y102.829 E21.68917
G1 X96.308 Y102.546 E21.69944
G1 X96.308 Y101.004 E21.75073
G1 X96.235 Y100.621 E21.7637
G1 F1702.1 X95.933 Y100.23 E21.78108
G1 F1535.2 X95.421 Y100.006 E21.80287
G1 F1614.3 X95.906 Y99.96 E21.82094
G1 F1800 X124.061 Y99.96 E22.75738
G1 F1629 X124.503 Y100.001 E22.77369
G1 F1555.1 X124.059 Y100.236 E22.79303
G1 F1710.2 X123.756 Y100.622 E22.81021
G1 F1800 X123.691 Y100.966 E22.82185
G1 X123.688 Y102.53 E22.87387
G1 X123.554 Y102.836 E22.88498
G1 X123.317 Y103.004 E22.89465
G1 X123.188 Y103.04 E22.8991
G1 X110 Y103.04 E23.33773
G0 F9000 X110 Y103.3
G0 X96.776 Y103.239
G0 X96.485 Y103.139
G0 X96.28 Y102.962
G0 X96.109 Y102.571
G0 X95.806 Y100.391
G0 X91.28 Y100.228
G0 X91.28 Y99.772
G0 X96.201 Y99.7
G0 X96.201 Y100.161
G1 F1800 X98.88 Y102.839 E23.46372
G0 F9000 X99.445 Y102.839
G1 F1800 X96.767 Y100.161 E23.58969
G0 F9000 X97.333 Y100.161
G1 F1800 X100.011 Y102.839 E23.71565
G0 F9000 X100.577 Y102.839
G1 F1800 X97.898 Y100.161 E23.84164
G0 F9000 X98.464 Y100.161
G1 F1800 X101.142 Y102.839 E23.96761
G0 F9000 X101.708 Y102.839
G1 F1800 X99.03 Y100.161 E24.09357
G0 F9000 X99.595 Y100.161
G1 F1800 X102.274 Y102.839 E24.21956
G0 F9000 X102.839 Y102.839
G1 F1800 X100.161 Y100.161 E24.34552
G0 F9000 X100.727 Y100.161
G1 F1800 X103.405 Y102.839 E24.47149
G0 F9000 X103.971 Y102.839
G1 F1800 X101.292 Y100.161 E24.59748
G0 F9000 X101.858 Y100.161
G1 F1800 X104.537 Y102.839 E24.72347
G0 F9000 X105.102 Y102.839
G1 F1800 X102.424 Y100.161 E24.84943
G0 F9000 X102.989 Y100.161
G1 F1800 X105.668 Y102.839 E24.97542
G0 F9000 X106.234 Y102.839
G1 F1800 X103.555 Y100.161 E25.10141
G0 F9000 X104.121 Y100.161
G1 F1800 X106.799 Y102.839 E25.22737
G0 F9000 X107.365 Y102.839
G1 F1800 X104.686 Y100.161 E25.35336
G0 F9000 X105.252 Y100.161
G1 F1800 X107.931 Y102.839 E25.47935
G0 F9000 X108.496 Y102.839
G1 F1800 X105.818 Y100.161 E25.60531
G0 F9000 X106.384 Y100.161
G1 F1800 X109.062 Y102.839 E25.73128
G0 F9000 X109.628 Y102.839
G1 F1800 X106.949 Y100.161 E25.85727
G0 F9000 X107.515 Y100.161
G1 F1800 X110.193 Y102.839 E25.98323
G0 F9000 X110.759 Y102.839
G1 F1800 X108.081 Y100.161 E26.1092
G0 F9000 X108.646 Y100.161
G1 F1800 X111.325 Y102.839 E26.23519
G0 F9000 X111.89 Y102.839
G1 F1800 X109.212 Y100.161 E26.36115
G0 F9000 X109.778 Y100.161
G1 F1800 X112.456 Y102.839 E26.48712
G0 F9000 X113.022 Y102.839
G1 F1800 X110.343 Y100.161 E26.6131
G0 F9000 X110.909 Y100.161
G1 F1800 X113.588 Y102.839 E26.73909
G0 F9000 X114.153 Y102.839
G1 F1800 X111.475 Y100.161 E26.86506
G0 F9000 X112.04 Y100.161
G1 F1800 X114.719 Y102.839 E26.99105
G0 F9000 X115.285 Y102.839
G1 F1800 X112.606 Y100.161 E27.11703
G0 F9000 X113.172 Y100.161
G1 F1800 X115.85 Y102.839 E27.243
G0 F9000 X116.416 Y102.839
G1 F1800 X113.737 Y100.161 E27.36899
G0 F9000 X114.303 Y100.161
G1 F1800 X116.982 Y102.839 E27.49498
G0 F9000 X117.547 Y102.839
G1 F1800 X114.869 Y100.161 E27.62094
G0 F9000 X115.434 Y100.161
G1 F1800 X118.113 Y102.839 E27.74693
G0 F9000 X118.679 Y102.839
G1 F1800 X116 Y100.161 E27.87292
G0 F9000 X116.566 Y100.161
G1 F1800 X119.244 Y102.839 E27.99888
G0 F9000 X119.81 Y102.839
G1 F1800 X117.132 Y100.161 E28.12485
G0 F9000 X117.697 Y100.161
G1 F1800 X120.376 Y102.839 E28.25084
G0 F9000 X120.941 Y102.839
G1 F1800 X118.263 Y100.161 E28.3768
G0 F9000 X118.829 Y100.161
G1 F1800 X121.507 Y102.839 E28.50277
G0 F9000 X122.073 Y102.839
G1 F1800 X119.394 Y100.161 E28.62875
G0 F9000 X119.96 Y100.161
G1 F1800 X122.638 Y102.839 E28.75472
G0 F9000 X123.204 Y102.839
G1 F1800 X120.526 Y100.161 E28.88068
G0 F9000 X121.091 Y100.161
G1 F1800 X123.467 Y102.537 E28.99244
G0 F9000 X123.49 Y101.994
G1 F1800 X121.657 Y100.161 E29.07866
G0 F9000 X122.223 Y100.161
G1 F1800 X123.493 Y101.431 E29.1384
G0 F9000 X123.505 Y100.877
G1 F1800 X122.788 Y100.161 E29.1721
G0 F9000 X123.354 Y100.161
G1 F1800 X123.64 Y100.447 E29.18555
G0 F9000 X124.003 Y100.731
G0 X123.887 Y102.574
G0 X123.718 Y102.966
G0 X123.406 Y103.189
G0 X98.314 Y103.3
G0 X98.314 Y102.839
G1 F1800 X96.508 Y101.034 E29.27048
