;FLAVOR:Marlin
;TIME:24863
;Filament used: 47.538m
;Layer height: 0.3
;MINX:29
;MINY:47
;MINZ:0.3
;MAXX:191
;MAXY:173
;MAXZ:80.1
;TARGET_MACHINE.NAME:Creality Ender-3 V3 SE
;Generated with Cura_SteamEngine 5.10.1
M220 S100 ;Reset Feedrate
M221 S100 ;Reset Flowrate

G28 ;Home

M420 S1; Use saved mesh leveling data

G92 E0 ;Reset Extruder
G1 Z2.0 F3000 ;Move Z Axis up
G1 X-3 Y20 Z0.28 F5000.0 ;Move to start position
M190 S60 ; Set bed temperature and wait
M109 S210.0 ; Set hotend temperature and wait
G1 X-3 Y100.0 Z0.28 F1500.0 E15 ;Draw the first line
G1 X-2 Y100.0 Z0.28 F5000.0 ;Move to side a little
G1 X-2 Y20 Z0.28 F1500.0 E30 ;Draw the second line
G92 E0 ;Reset Extruder
G1 E-1.0000 F1800 ;Retract a bit
G1 Z2.0 F3000 ;Move Z Axis up
G1 E0.0000 F1800 

M82 ;absolute extrusion mode
G92 E0
G92 E0
G1 F2400 E-0.8
;LAYER_COUNT:267
;LAYER:0
M107
G0 F9000 X33.998 Y48.797 Z0.3
;TYPE:SKIRT
G1 F2400 E0
G1 F1800 X34.837 Y48.301 E0.04863
G1 X35.651 Y47.91 E0.09368
G1 X36.628 Y47.542 E0.14576
G1 X37.532 Y47.292 E0.19256
G1 X38.534 Y47.109 E0.24337
G1 X39.705 Y47.013 E0.30199
G1 X40.312 Y47 E0.33228
G1 X179.304 Y47 E7.26662
G1 X180.184 Y47.013 E7.31053
G1 X181.156 Y47.072 E7.35911
G1 X182.119 Y47.218 E7.40771
G1 X183.066 Y47.449 E7.45634
G1 X183.954 Y47.749 E7.5031
G1 X184.846 Y48.139 E7.55167
G1 X185.729 Y48.626 E7.60198
G1 X186.48 Y49.128 E7.64704
G1 X187.295 Y49.786 E7.6993
G1 X187.993 Y50.464 E7.74785
G1 X188.629 Y51.201 E7.79642
G1 X189.199 Y51.991 E7.84502
G1 X189.661 Y52.767 E7.89008
G1 X190.115 Y53.709 E7.94225
G1 X190.444 Y54.587 E7.98902
G1 X190.713 Y55.559 E8.03934
G1 X190.89 Y56.525 E8.08834
G1 X190.985 Y57.655 E8.14491
G1 X191 Y58.33 E8.17859
G1 X190.999 Y161.416 E13.32158
G1 X190.987 Y162.177 E13.35955
G1 X190.929 Y163.15 E13.40818
G1 X190.783 Y164.113 E13.45677
G1 X190.552 Y165.06 E13.5054
G1 X190.239 Y165.982 E13.55398
G1 X189.847 Y166.873 E13.60254
G1 X189.395 Y167.695 E13.64934
G1 X188.833 Y168.533 E13.69968
G1 X188.243 Y169.263 E13.74651
G1 X187.54 Y169.989 E13.79693
G1 X186.804 Y170.625 E13.84546
G1 X186.014 Y171.195 E13.89406
G1 X185.238 Y171.658 E13.93914
G1 X184.298 Y172.111 E13.9912
G1 X183.385 Y172.453 E14.03984
G1 X182.447 Y172.712 E14.08839
G1 X181.481 Y172.889 E14.13739
G1 X180.345 Y172.985 E14.19426
G1 X179.67 Y173 E14.22795
G1 X40.549 Y172.999 E21.16872
G1 X39.816 Y172.987 E21.2053
G1 X38.844 Y172.928 E21.25388
G1 X37.881 Y172.782 E21.30247
G1 X36.934 Y172.551 E21.3511
G1 X36.046 Y172.251 E21.39787
G1 X35.154 Y171.861 E21.44644
G1 X34.271 Y171.374 E21.49674
G1 X33.52 Y170.872 E21.54181
G1 X32.705 Y170.214 E21.59407
G1 X32.007 Y169.536 E21.64262
G1 X31.371 Y168.799 E21.69118
G1 X30.801 Y168.009 E21.73979
G1 X30.339 Y167.233 E21.78484
G1 X29.885 Y166.291 E21.83701
G1 X29.556 Y165.413 E21.88379
G1 X29.287 Y164.44 E21.93415
G1 X29.11 Y163.473 E21.9832
G1 X29.014 Y162.308 E22.04152
G1 X29 Y161.658 E22.07396
G1 X29.001 Y58.509 E27.22008
G1 X29.013 Y57.808 E27.25506
G1 X29.073 Y56.835 E27.30369
G1 X29.22 Y55.874 E27.3522
G1 X29.451 Y54.926 E27.40087
G1 X29.753 Y54.037 E27.44772
G1 X30.16 Y53.115 E27.498
G1 X30.631 Y52.263 E27.54657
G1 X31.176 Y51.454 E27.59523
G1 X31.767 Y50.726 E27.64201
G1 X32.469 Y50.001 E27.69236
G1 X33.179 Y49.387 E27.73919
G1 X33.998 Y48.797 E27.78955
G0 F9000 X34.202 Y49.141
G1 F1800 X35.01 Y48.662 E27.83641
G1 X35.824 Y48.271 E27.88147
G1 X36.735 Y47.928 E27.93003
G1 X37.639 Y47.678 E27.97682
G1 X38.567 Y47.508 E28.02389
G1 X39.714 Y47.413 E28.08131
G1 X40.321 Y47.4 E28.1116
G1 X179.298 Y47.4 E35.04519
G1 X180.16 Y47.412 E35.0882
G1 X181.097 Y47.468 E35.13503
G1 X182.025 Y47.607 E35.18185
G1 X182.938 Y47.828 E35.22871
G1 X183.794 Y48.116 E35.27377
G1 X184.686 Y48.506 E35.32234
G1 X185.507 Y48.959 E35.36912
G1 X186.258 Y49.461 E35.41419
G1 X187.017 Y50.073 E35.46283
G1 X187.691 Y50.726 E35.50965
G1 X188.305 Y51.435 E35.55645
G1 X188.855 Y52.196 E35.60329
G1 X189.317 Y52.972 E35.64835
G1 X189.74 Y53.849 E35.69692
G1 X190.069 Y54.727 E35.7437
G1 X190.32 Y55.632 E35.79056
G1 X190.491 Y56.559 E35.83758
G1 X190.586 Y57.689 E35.89416
G1 X190.6 Y58.33 E35.92615
G1 X190.599 Y161.41 E41.06883
G1 X190.588 Y162.154 E41.10595
G1 X190.533 Y163.091 E41.15278
G1 X190.394 Y164.019 E41.19959
G1 X190.173 Y164.932 E41.24646
G1 X189.873 Y165.821 E41.29327
G1 X189.496 Y166.68 E41.34007
G1 X189.044 Y167.502 E41.38687
G1 X188.521 Y168.282 E41.43372
G1 X187.955 Y168.985 E41.47875
G1 X187.278 Y169.687 E41.52741
G1 X186.57 Y170.301 E41.57416
G1 X185.809 Y170.851 E41.62101
G1 X185.033 Y171.314 E41.66609
G1 X184.157 Y171.737 E41.71462
G1 X183.278 Y172.068 E41.76148
G1 X182.374 Y172.319 E41.80829
G1 X181.447 Y172.49 E41.85531
G1 X180.311 Y172.586 E41.91219
G1 X179.67 Y172.6 E41.94418
G1 X40.555 Y172.599 E48.88466
G1 X39.84 Y172.588 E48.92033
G1 X38.903 Y172.532 E48.96716
G1 X37.975 Y172.393 E49.01398
G1 X37.062 Y172.172 E49.06084
G1 X36.206 Y171.884 E49.1059
G1 X35.314 Y171.494 E49.15447
G1 X34.493 Y171.041 E49.20125
G1 X33.742 Y170.539 E49.24632
G1 X32.983 Y169.927 E49.29496
G1 X32.309 Y169.274 E49.34178
G1 X31.695 Y168.565 E49.38857
G1 X31.145 Y167.804 E49.43542
G1 X30.683 Y167.028 E49.48047
G1 X30.26 Y166.151 E49.52905
G1 X29.931 Y165.273 E49.57583
G1 X29.68 Y164.368 E49.62268
G1 X29.509 Y163.44 E49.66976
G1 X29.413 Y162.275 E49.72808
G1 X29.4 Y161.658 E49.75887
G1 X29.401 Y58.515 E54.90469
G1 X29.412 Y57.832 E54.93877
G1 X29.469 Y56.895 E54.98561
G1 X29.609 Y55.968 E55.03238
G1 X29.83 Y55.055 E55.07925
G1 X30.132 Y54.166 E55.12609
G1 X30.51 Y53.308 E55.17286
G1 X30.963 Y52.486 E55.21969
G1 X31.487 Y51.706 E55.26657
G1 X32.078 Y50.978 E55.31335
G1 X32.731 Y50.304 E55.36017
G1 X33.441 Y49.69 E55.407
G1 X34.202 Y49.141 E55.45381
G0 F9000 X34.407 Y49.485
G1 F1800 X35.183 Y49.023 E55.49887
G1 X35.997 Y48.632 E55.54392
G1 X36.842 Y48.313 E55.58898
G1 X37.712 Y48.071 E55.63404
G1 X38.6 Y47.907 E55.67909
G1 X39.723 Y47.813 E55.73531
G1 X40.33 Y47.8 E55.7656
G1 X179.293 Y47.8 E62.69849
G1 X180.137 Y47.811 E62.74061
G1 X181.039 Y47.864 E62.78568
G1 X181.932 Y47.996 E62.83072
G1 X182.81 Y48.207 E62.87577
G1 X183.666 Y48.495 E62.92083
G1 X184.493 Y48.857 E62.96587
G1 X185.285 Y49.292 E63.01095
G1 X186.036 Y49.794 E63.05602
G1 X186.739 Y50.361 E63.10107
G1 X187.389 Y50.988 E63.14613
G1 X187.981 Y51.67 E63.19119
G1 X188.511 Y52.401 E63.23623
G1 X188.973 Y53.177 E63.28129
G1 X189.366 Y53.99 E63.32634
G1 X189.684 Y54.835 E63.37139
G1 X189.927 Y55.705 E63.41645
G1 X190.092 Y56.593 E63.46151
G1 X190.187 Y57.723 E63.51809
G1 X190.2 Y58.33 E63.54838
G1 X190.199 Y161.404 E68.69076
G1 X190.189 Y162.131 E68.72703
G1 X190.137 Y163.033 E68.77211
G1 X190.005 Y163.926 E68.81715
G1 X189.794 Y164.805 E68.86224
G1 X189.507 Y165.661 E68.90729
G1 X189.145 Y166.488 E68.95233
G1 X188.711 Y167.28 E68.99738
G1 X188.209 Y168.031 E69.04245
G1 X187.643 Y168.734 E69.08748
G1 X187.016 Y169.385 E69.13257
G1 X186.335 Y169.977 E69.17759
G1 X185.604 Y170.507 E69.22263
G1 X184.828 Y170.97 E69.26772
G1 X184.015 Y171.363 E69.31277
G1 X183.17 Y171.683 E69.35785
G1 X182.301 Y171.926 E69.40286
G1 X181.413 Y172.091 E69.44793
G1 X180.277 Y172.187 E69.5048
G1 X179.67 Y172.2 E69.53509
G1 X40.561 Y172.199 E76.47527
G1 X39.863 Y172.189 E76.5101
G1 X38.961 Y172.136 E76.55517
G1 X38.068 Y172.004 E76.60021
G1 X37.19 Y171.793 E76.64526
G1 X36.334 Y171.505 E76.69032
G1 X35.507 Y171.143 E76.73536
G1 X34.715 Y170.708 E76.78044
G1 X33.964 Y170.206 E76.82551
G1 X33.261 Y169.639 E76.87057
G1 X32.611 Y169.012 E76.91562
G1 X32.019 Y168.33 E76.96068
G1 X31.489 Y167.599 E77.00573
G1 X31.027 Y166.823 E77.05078
G1 X30.634 Y166.01 E77.09583
G1 X30.316 Y165.165 E77.14088
G1 X30.073 Y164.295 E77.18594
G1 X29.908 Y163.407 E77.231
G1 X29.813 Y162.266 E77.28812
G1 X29.8 Y161.658 E77.31847
G1 X29.801 Y58.521 E82.46399
G1 X29.811 Y57.856 E82.49717
G1 X29.865 Y56.954 E82.54225
G1 X29.998 Y56.061 E82.5873
G1 X30.209 Y55.183 E82.63235
G1 X30.498 Y54.327 E82.67742
G1 X30.861 Y53.5 E82.72248
G1 X31.295 Y52.709 E82.76749
G1 X31.798 Y51.958 E82.81259
G1 X32.366 Y51.256 E82.85764
G1 X32.993 Y50.606 E82.9027
G1 X33.675 Y50.014 E82.94775
G1 X34.407 Y49.485 E82.99281
G1 F2400 E82.19281
;MESH:balance_robot_v2.stl
G0 F9000 X50.003 Y63.22
G0 X110.019 Y84.599
;TYPE:WALL-INNER
G1 F2400 E82.99281
G1 F1800 X49.947 Y84.598 E85.98981
G1 X49.729 Y84.536 E86.00112
G1 X49.499 Y84.331 E86.01649
G1 X49.406 Y84.09 E86.02938
G1 X49.4 Y63.921 E87.03562
G1 X49.493 Y63.678 E87.0486
G1 X49.693 Y63.484 E87.0625
G1 X50 Y63.4 E87.07838
G1 X170.125 Y63.4 E93.07144
G1 X170.424 Y63.574 E93.0887
G1 X170.561 Y63.785 E93.10125
G1 X170.6 Y63.921 E93.10831
G1 X170.6 Y84.079 E94.11399
G1 X170.543 Y84.257 E94.12332
G1 X170.363 Y84.479 E94.13758
G1 X170.11 Y84.6 E94.15157
G1 X110.019 Y84.599 E97.14952
G1 F2400 E96.34952
G0 F9000 X110.002 Y89.201
G0 X110 Y130.599
G1 F2400 E97.14952
G1 F1800 X49.947 Y130.598 E100.14558
G1 X49.729 Y130.536 E100.15688
G1 X49.499 Y130.331 E100.17226
G1 X49.406 Y130.09 E100.18514
G1 X49.4 Y89.936 E102.18843
G1 X49.529 Y89.627 E102.20514
G1 X49.729 Y89.464 E102.21801
G1 X49.947 Y89.402 E102.22932
G1 X170.11 Y89.4 E108.22428
G1 X170.363 Y89.521 E108.23827
G1 X170.501 Y89.669 E108.24836
G1 X170.6 Y89.921 E108.26187
G1 X170.6 Y130.079 E110.26536
G1 X170.543 Y130.257 E110.27469
G1 X170.363 Y130.479 E110.28895
G1 X170.11 Y130.6 E110.30294
G1 X110 Y130.599 E113.30184
G1 F2400 E112.50184
G0 F9000 X110.002 Y135.201
G0 X110 Y156.6
G1 F2400 E113.30184
G1 F1800 X49.875 Y156.6 E116.30149
G1 X49.576 Y156.426 E116.31874
G1 X49.439 Y156.215 E116.3313
G1 X49.4 Y156.079 E116.33835
G1 X49.406 Y135.91 E117.34459
G1 X49.529 Y135.627 E117.35998
G1 X49.729 Y135.464 E117.37286
G1 X49.947 Y135.402 E117.38416
G1 X170.11 Y135.4 E123.37912
G1 X170.363 Y135.521 E123.39311
G1 X170.501 Y135.669 E123.40321
G1 X170.6 Y135.921 E123.41672
G1 X170.6 Y156.075 E124.4222
G1 X170.507 Y156.322 E124.43537
G1 X170.307 Y156.516 E124.44927
G1 X170.111 Y156.6 E124.45991
G1 X110 Y156.6 E127.45886
G1 F2400 E126.65886
G0 F9000 X109.998 Y161.219
G0 X110 Y161.399
G1 F2400 E127.45886
G1 F1800 X179.4 Y161.4 E130.92124
G1 X179.4 Y58.6 E136.04995
G1 X40.601 Y58.601 E142.97466
G1 X40.601 Y161.399 E148.10328
G1 X110 Y161.399 E151.56561
G0 F9000 X110 Y161.8
;TYPE:WALL-OUTER
G1 F1800 X179.8 Y161.8 E155.04794
G1 X179.8 Y58.2 E160.21657
G1 X40.201 Y58.201 E167.18119
G1 X40.201 Y161.799 E172.34971
G1 X110 Y161.8 E175.832
G1 F2400 E175.032
G0 F9000 X110 Y161.49
G0 X109.998 Y161.219
G0 X109.998 Y156.78
G0 X110 Y156.199
G1 F2400 E175.832
G1 F1800 X49.961 Y156.2 E178.82736
G1 X49.858 Y156.142 E178.83326
G1 X49.803 Y156.035 E178.83926
G1 X49.8 Y135.954 E179.8411
G1 X49.857 Y135.859 E179.84663
G1 X49.982 Y135.8 E179.85353
G1 X170.05 Y135.806 E185.84374
G1 X170.167 Y135.889 E185.8509
G1 X170.198 Y135.965 E185.855
G1 X170.197 Y156.038 E186.85644
G1 X170.169 Y156.108 E186.8602
G1 X170.035 Y156.198 E186.86826
G1 X110 Y156.199 E189.86341
G1 F2400 E189.06341
G0 F9000 X110 Y156.51
G0 X49.562 Y156.438
G0 X49.562 Y135.562
G0 X110 Y135.201
G0 X110.002 Y130.779
G0 X110 Y130.197
G1 F2400 E189.86341
G1 F1800 X49.982 Y130.2 E192.85772
G1 X49.833 Y130.111 E192.86638
G1 X49.802 Y130.03 E192.87071
G1 X49.8 Y89.954 E194.87011
G1 X49.857 Y89.859 E194.87564
G1 X49.982 Y89.8 E194.88253
G1 X170.05 Y89.806 E200.87275
G1 X170.167 Y89.889 E200.87991
G1 X170.198 Y89.965 E200.884
G1 X170.198 Y130.035 E202.8831
G1 X170.143 Y130.141 E202.88906
G1 X170.05 Y130.194 E202.8944
G1 X110 Y130.197 E205.89031
G1 F2400 E205.09031
G0 F9000 X110 Y130.51
G0 X49.562 Y130.438
G0 X49.562 Y89.562
G0 X110 Y89.55
G0 X110 Y89.201
G0 X110.002 Y84.779
G0 X110 Y84.2
G1 F2400 E205.89031
G1 F1800 X49.982 Y84.2 E208.88462
G1 X49.857 Y84.141 E208.89151
G1 X49.8 Y84.046 E208.89704
G1 X49.803 Y63.962 E209.89904
G1 X49.831 Y63.892 E209.9028
G1 X49.965 Y63.802 E209.91085
G1 X170.039 Y63.8 E215.90137
G1 X170.142 Y63.858 E215.90726
G1 X170.197 Y63.962 E215.91313
G1 X170.198 Y84.035 E216.91458
G1 X170.143 Y84.141 E216.92054
G1 X170 Y84.2 E216.92825
G1 X110 Y84.2 E219.92167
G1 F2400 E219.12167
G0 F9000 X110 Y84.51
G0 X110.002 Y84.779
G0 X110 Y161.219
G0 X110 Y161.038
;TYPE:SKIN
G1 F2400 E219.92167
G1 F1800 X40.961 Y161.035 E223.36604
G1 X40.96 Y58.96 E228.45858
G1 X179.04 Y58.96 E235.34742
G1 X179.04 Y161.04 E240.44021
G1 X110 Y161.038 E243.88463
G1 F2400 E243.08463
G0 F9000 X109.999 Y161.299
G0 X109.998 Y156.78
G0 X110 Y156.959
G1 F2400 E243.88463
G1 F1800 X170.023 Y156.959 E246.87919
G1 X170.239 Y156.93 E246.89006
G1 X170.524 Y156.796 E246.90577
G1 X170.809 Y156.513 E246.92581
G1 X170.958 Y156.127 E246.94645
G1 X170.957 Y135.884 E247.95638
G1 X170.769 Y135.382 E247.98313
G1 X170.424 Y135.132 E248.00438
G1 X170.016 Y135.041 E248.02524
G1 X49.914 Y135.04 E254.01715
G1 X49.568 Y135.141 E254.03513
G1 X49.247 Y135.399 E254.05568
G1 X49.141 Y135.567 E254.06559
G1 X49.042 Y135.881 E254.08201
G1 X49.043 Y156.031 E255.0873
G1 X49.1 Y156.339 E255.10293
G1 X49.324 Y156.684 E255.12345
G1 X49.691 Y156.905 E255.14482
G1 X49.973 Y156.959 E255.15915
G1 X110 Y156.959 E258.15391
G1 F2400 E257.35391
G0 F9000 X110 Y156.7
G0 X170.438 Y156.438
G0 X170.438 Y135.562
G0 X110.001 Y135.201
G0 X110.003 Y130.779
G0 X110 Y130.958
G1 F2400 E258.15391
G1 F1800 X170.18 Y130.96 E261.1563
G1 X170.584 Y130.759 E261.17881
G1 X170.868 Y130.41 E261.20126
G1 X170.958 Y130.135 E261.2157
G1 X170.957 Y89.884 E263.22383
G1 X170.769 Y89.382 E263.25057
G1 X170.424 Y89.132 E263.27183
G1 X170.016 Y89.041 E263.29268
G1 X49.914 Y89.04 E269.2846
G1 X49.568 Y89.141 E269.30258
G1 X49.247 Y89.399 E269.32312
G1 X49.141 Y89.567 E269.33304
G1 X49.042 Y89.881 E269.34946
G1 X49.042 Y130.111 E271.35654
G1 X49.232 Y130.616 E271.38346
G1 X49.565 Y130.855 E271.40391
G1 X49.914 Y130.956 E271.42204
G1 X110 Y130.958 E274.41974
G1 F2400 E273.61974
G0 F9000 X110.001 Y130.699
G0 X170.438 Y130.438
G0 X170.438 Y89.562
G0 X110.039 Y89.201
G0 X110.041 Y84.78
G0 X110.038 Y84.958
G1 F2400 E274.41974
G1 F1800 X170.18 Y84.96 E277.42024
G1 X170.584 Y84.759 E277.44275
G1 X170.868 Y84.41 E277.4652
G1 X170.958 Y84.135 E277.47963
G1 X170.957 Y63.962 E278.48607
G1 X170.895 Y63.655 E278.50169
G1 X170.673 Y63.313 E278.52204
G1 X170.31 Y63.091 E278.54326
G1 X170.019 Y63.041 E278.558
G1 X49.81 Y63.041 E284.55525
G1 X49.472 Y63.2 E284.57388
G1 X49.187 Y63.484 E284.59396
G1 X49.04 Y63.86 E284.6141
G1 X49.042 Y84.111 E285.62442
G1 X49.232 Y84.616 E285.65134
G1 X49.565 Y84.855 E285.67179
G1 X49.914 Y84.956 E285.68992
G1 X110.038 Y84.958 E288.68952
G1 F2400 E287.88952
G0 F9000 X110.039 Y84.699
G0 X170.438 Y84.438
G0 X170.438 Y63.562
G0 X169.997 Y63.22
G0 X169.997 Y58.8
G0 X178.52 Y59.16
G1 F2400 E288.68952
G1 F1800 X178.84 Y59.48 E288.71209
G0 F9000 X178.84 Y60.046
G1 F1800 X177.954 Y59.16 E288.77461
G0 F9000 X177.388 Y59.16
G1 F1800 X178.84 Y60.612 E288.87705
G0 F9000 X178.84 Y61.177
G1 F1800 X176.823 Y59.16 E289.01936
G0 F9000 X176.257 Y59.16
G1 F1800 X178.84 Y61.743 E289.20161
G0 F9000 X178.84 Y62.309
G1 F1800 X175.691 Y59.16 E289.42379
G0 F9000 X175.126 Y59.16
G1 F1800 X178.84 Y62.875 E289.68586
G0 F9000 X178.84 Y63.44
G1 F1800 X174.56 Y59.16 E289.98784
G0 F9000 X173.994 Y59.16
G1 F1800 X178.84 Y64.006 E290.32975
G0 F9000 X178.84 Y64.572
G1 F1800 X173.429 Y59.16 E290.71156
G0 F9000 X172.863 Y59.16
G1 F1800 X178.84 Y65.137 E291.13327
G0 F9000 X178.84 Y65.703
G1 F1800 X172.297 Y59.16 E291.59492
G0 F9000 X171.731 Y59.16
G1 F1800 X178.84 Y66.269 E292.0965
G0 F9000 X178.84 Y66.834
G1 F1800 X171.166 Y59.16 E292.63794
G0 F9000 X170.6 Y59.16
G1 F1800 X178.84 Y67.4 E293.21931
G0 F9000 X178.84 Y67.966
G1 F1800 X170.034 Y59.16 E293.84063
